X:1
T:Title
%%score { ( 1 4 5 ) | ( 2 3 ) }
L:1/8
M:4/4
K:C
V:1 treble nm="Grand Piano"
V:4 treble 
V:5 treble 
V:2 treble 
V:3 treble 
V:1
 z4 z2[Q:1/4=100] (3GAB | [Ec]2 [EB]>[EA] [Ec]2 [EB]>[EA] | [Fc]2 [FB]4 (3GBc | d2 c>B d2 c>B | %4
 [FA]2 G4 (3[C-G]C[Fd] | [Ee]2 [Ed]>[EB] [Ee]2 [Ed]>[Ee] | [Ed]2 [Ec]4 [Dd][Ge] | %7
 [Gd]2 [^Fc]>[DGB] [CFA]2 [DFB]>[CFA] |[M:3/4] [B,G]6 |[M:1/4] G/ z/ z |[M:4/4] c4 z4 | %11
 [EA]2 A2- [G,CEA]2 .[G,FG]2 | c4 z4 | B6 z2 | [Bd]2 [FGBd]2 z2 z ^c | [Bd]2 [FGBd]2 z2 z ^c | %16
 [FBd]2 [Ec]>c [DGB]2 z[K:bass] ^F, | z4 z2[K:treble] F2 | c2- [G,CEc]2 [Ec]2 [CE]2 | %19
 [EA]2 [CEA]2 [EA]2 .[G,FG]2 | c2- [G,CEc]2 [Ec]2 [CEA]2 | [FB]2 [DFB]2 [FB]2 [DG]2 | %22
 [Bdf]2 [Gce]2 z2 z _e | [Ge]2 [FBd]2 [EAc]2 [C_EB]2 | [G,CEG]2 [CEG]2 [CD^FA]2 [=FGBd]2 | %25
[M:3/4] [Ec]6 |] %26
V:2
 z4 z2 (3G,-[G,^F][G,=F] | [C,G,]2 [C,G,]>[C,G,] [C,G,]2 [C,G,]>[C,G,] | z4 z2[K:treble] F2 | %3
 [G,B,F]2 [G,DF]>[G,DF] [G,B,F]2 [G,DF]>[G,DF] | z2 E4 (3C,-[C,c][C,G,] | %5
 [B,,^G,]2 [B,,G,]>[B,,G,] [B,,G,]2 [B,,G,]>[B,,G,] | [A,,A,]2 [A,,A,]4 [B,,G,][C,C] | %7
 [D,B,]2 [D,A,]>D, D,2 D,>D, |[M:3/4] G,6 |[M:1/4] (3z[K:treble] AB | %10
[M:4/4][K:bass] [C,G,C]2 z[K:treble] B[K:bass] [C,G,C]2 [G,,G,]2 | %11
 [C,G,C]2 [G,,G,]2 C,2 (3z[K:treble] AB | [C,G,C]2 z[K:treble] B[K:bass] [C,G,C]2 [G,,G,]2 | %13
 [D,G,D]2 [G,,G,]2 [D,G,]2 [G,,G,]2 | [G,FG]2 [G,,G,]2 G,2 z[K:treble] [EGA] | %15
 [G,FG]2[K:bass] [G,,G,]2 G,2 z [EGA] | [G,,G,][^G,,^G,] .[A,,A,]>[DA] [G,,G,][D,,D,][E,,E,]^F,, | %17
 G,,A,,B,,A,, G,,F,, (3:2:2E,,2[K:treble] B | C,,2 z[K:treble] B[K:bass] [C,G,C]2 [G,,G,]2 | %19
 [C,G,C]2 [G,,G,]2 [C,G,C]2 (3z[K:treble] AB | [C,G,C]2 z[K:treble] B[K:bass] [C,G,C]2 [G,,G,]2 | %21
 [D,G,D]2 [G,,G,]2 [D,G,D]2 [G,,G,]2 | [G,G]2 [G,,G,]2 G,2 z ^F | %23
 [C,G,]2 [G,,G,][^G,,^G,] [A,,A,][=G,,=G,] z z/ A/ | G,,2 [E,,E,]2 [D,,D,]2 [G,,G,]2 | %25
[M:3/4] [C,G,]6 |] %26
V:3
 x8 | x8 | [D,G,]2 [D,G,]4[K:treble] (3:2:2G,2 G, | x8 | [C,C]6 z2 | x8 | x8 | x8 | %8
[M:3/4] z2 F,2 E,2 |[M:1/4] D,2[K:treble] |[M:4/4][K:bass] z2 G,,2[K:treble][K:bass] z4 | %11
 z4 z2 G,,2[K:treble] | z2 G,,2[K:treble][K:bass] z4 | x8 | z4 z2 G,,2[K:treble] | %15
 z4[K:bass] z2 G,,2 | z2 z [^F,,^F,] z4 | z4 z2 E,D,,[K:treble] | z2 G,,2[K:treble][K:bass] z4 | %19
 z4 z2 G,,2[K:treble] | z2 G,,2[K:treble][K:bass] z4 | x8 | z4 z2 G,,2 | z4 z2 [F,,F,]2 | x8 | %25
[M:3/4] x6 |] %26
V:4
 x8 | x8 | x8 | x8 | z4 z2 E2 | x8 | x8 | x8 |[M:3/4] x6 |[M:1/4] [G,F]2 | %10
[M:4/4] E2 [G,CE]2 [Ec]2 [CE]2 | z2 [CE]2 z4 | E2 [G,CE]2 [Ec]2 [CEA]2 | F2 [DF]2 [DF]2 [DFG]2 | %14
 z4 [EGA^c]4 | z4 [EGA^c]4 | z4 z2 [CD^FA]2[K:bass] | [CDG]6[K:treble] z D, | [C,G,CE]2 z2 z4 | %19
 x8 | E2 z2 z4 | x8 | z4 [FGBd]4 | x8 | x8 |[M:3/4] x6 |] %26
V:5
 x8 | x8 | x8 | x8 | x8 | x8 | x8 | x8 |[M:3/4] x6 |[M:1/4] x2 |[M:4/4] x8 | x8 | x8 | x8 | %14
 z4 z2 G,2 | z4 z2 G,2 | x7[K:bass] x | G,A,B,A, G,F,[K:treble] (3GA z | x8 | x8 | x8 | x8 | %22
 z4 z2 G,2 | x8 | x8 |[M:3/4] x6 |] %26

